X: 1
T: En pige gik e enge
O: Danmark
Z: 2007 John Chambers <jc@trillian.mit.edu>
S: printed MS of unknown origin
M: 2/4
L: 1/8
K: G
V: 1
D | "G"GG GG | G2 GG | "D7"AA FF | "G"G2 z :|
w: 1.~E pi-ge gik i en-ge, hun skul-le sk\ae-re str\aa.
B | "G"BB BB BD D2 | "Em"G2 "D"A2 | "G"BG GG | "D7"AA FF | "G"G2 z |]
w: Da kom en rid-der rid-en-de \-~\aah ja, rid-en-de \-~b\od hen-de stil-le st\aa.
V: 2
D | B,B, B,B, | B,2 B,B, | CC A,A, | B,2 z :|
D | DD DD | DD D2 | B,2 C2 | DB, B,B, | CC A,A, | B,2 z |]
%
W:2. Og hvorfor skal jeg stille st\aa og ikke sk\aere str\aa
W: I aften n\aar jeg kommer hjem - \aah ja, kommer hjem --
W: s\aa vil min moder sl\aa.
W:
W:3. S\aa tager du en lille klud og binder om din t\aa,
W: og siger, du har sk\aaret dig - \aah ja, sk\aaret dig -
W: alt p\aa det skarpe str\aa.
W:
W:4. Du l\aer' mig godt at lyve, det st\aar mig ikke an.
W: Langt heiler' vil jeg sige - \aah ja, sige -
W: en ridder elsker jeg.
N:
N: De legende g\aar i kreds om pigen, rytteren kommer ind i slutningen af vers 1.
N: Vers 2 og 4 synges af piget, vers 3 af rytteren, mens de g\or bev\aegelser, der
N: svarer til sangens indhold. De \ovrige synger med p\aa gentagelserne.
